#TITLE Alien Fire
#COMPOSER Ruins Everything
#MAKER 2011 Steve Cochrane

; Pitch macro: slide the pitch down by 8
; EP0 has already been defined so this is commented out for the multi-song NSF.
;@EP0 = { -8 }

; Set tempo for all channels to 140bpm
A t140

; Set up channel A (pulse): length = 8th notes, octave = 7, duty cycle = 1, volume = 15
A l8 o4 @01 v15
A EP0 f+