#TITLE Alien Death
#COMPOSER Ruins Everything
#MAKER 2011 Steve Cochrane

; Volume envelopes
; These are being re-used from the envelopes in Title Screen when compiling as a group.
;@v0 = { 15 14 13 12 11 10 9 8 7 6 5 4 3 2 1 0 }

; Set tempo for all channels to 120bpm
A t120

; Set up channel A (pulse): length = 16th notes, octave = 5, duty cycle = 1, volume envelope = 1
A l32 o5 @01 @v0
A g a >d8