#TITLE Fruit Get
#COMPOSER Ruins Everything
#MAKER 2011 Steve Cochrane

; Volume envelopes
; These are being re-used from the envelopes in Title Screen when compiling as a group.
;@v0 = { 15 14 13 12 11 10 9 8 7 6 5 4 3 2 1 0 }

; Set tempo for all channels to 120bpm
A t120

; Set up channel A (pulse): length = 4th notes, octave = 3, duty cycle = 1, volume envelope = 0
A l4 o3 @01 @v0
A f r g r a r b r >c